Avidclan_Website/assets/images/icons/predictable-syntax-ic.svg

<?xml version="1.0" encoding="utf-8"?>
<!-- Generator: Adobe Illustrator 24.1.1, SVG Export Plug-In . SVG Version: 6.00 Build 0)  -->
<svg version="1.1" id="Layer_1" xmlns="http://www.w3.org/2000/svg" xmlns:xlink="http://www.w3.org/1999/xlink" x="0px" y="0px"
	 viewBox="0 0 355.2 148" style="enable-background:new 0 0 355.2 148;" xml:space="preserve">
<style type="text/css">
	.st0{fill:#007AFB;}
</style>
<g>
	<path class="st0" d="M281.2,148c-4.4,0-7.4-1.5-10.4-4.4c-5.9-5.9-5.9-14.8,0-20.7L319.7,74l-48.8-48.8c-5.9-5.9-5.9-14.8,0-20.7
		s14.8-5.9,20.7,0l59.2,59.2c3,3,4.4,5.9,4.4,10.4s-1.5,7.4-4.4,10.4l-59.2,59.2C288.6,146.5,285.6,148,281.2,148L281.2,148z"/>
	<path class="st0" d="M74,148c-4.4,0-7.4-1.5-10.4-4.4L4.4,84.4c-5.9-5.9-5.9-14.8,0-20.7L63.6,4.4c5.9-5.9,14.8-5.9,20.7,0
		s5.9,14.8,0,20.7L35.5,74l48.8,48.8c5.9,5.9,5.9,14.8,0,20.7C81.4,146.5,77,148,74,148L74,148z"/>
	<path class="st0" d="M222,148h-88.8c-8.9,0-14.8-5.9-14.8-14.8c0-8.9,5.9-14.8,14.8-14.8H222c8.9,0,14.8,5.9,14.8,14.8
		C236.8,142.1,229.4,148,222,148z"/>
</g>
</svg>

<svg width="356" height="148" viewBox="0 0 356 148" fill="none" xmlns="http://www.w3.org/2000/svg">
<g clip-path="url(#clip0_493_457)">
<path d="M281.2 148C276.8 148 273.8 146.5 270.8 143.6C264.9 137.7 264.9 128.8 270.8 122.9L319.7 74L270.9 25.2C265 19.3 265 10.4 270.9 4.49995C276.8 -1.40005 285.7 -1.40005 291.6 4.49995L350.8 63.7C353.8 66.7 355.2 69.6 355.2 74.1C355.2 78.6 353.7 81.5 350.8 84.5L291.6 143.7C288.6 146.5 285.6 148 281.2 148Z" fill="#0E53BE"/>
<path d="M74 148C69.6 148 66.6 146.5 63.6 143.6L4.39998 84.4C-1.50002 78.5 -1.50002 69.6 4.39998 63.7L63.6 4.39998C69.5 -1.50002 78.4 -1.50002 84.3 4.39998C90.2 10.3 90.2 19.2 84.3 25.1L35.5 74L84.3 122.8C90.2 128.7 90.2 137.6 84.3 143.5C81.4 146.5 77 148 74 148Z" fill="#0E53BE"/>
<path d="M222 148H133.2C124.3 148 118.4 142.1 118.4 133.2C118.4 124.3 124.3 118.4 133.2 118.4H222C230.9 118.4 236.8 124.3 236.8 133.2C236.8 142.1 229.4 148 222 148Z" fill="#0E53BE"/>
</g>
<defs>
<clipPath id="clip0_493_457">
<rect width="355.2" height="148" fill="white"/>
</clipPath>
</defs>
</svg>
